X: 33892
T: Red Island Tune
R: polka
M: 2/4
K: Dmajor
|:dd- de|fe fg/f/|ed- de|fa eg|
dd- de|fe fg/f/|ee fe|1 dA Bc:|2 dE FA||
|:B>c BA|FE FG/F/|ED- DE|FA FA|
B>c BA|FE FG/F/|EE FE|1 DE FA:|2 DA Bc||

